X:30
T:Bransle de Bourgongne 9
C:Claude Gervaise
L:1/8
M:4/4
O:France
Z:Andy Hornby
%%TUNEURL: http://www.leeds.ac.uk/music/Info/RRTuneBk/gettune/00000d89.html
%%ID:00000d89
K:C
c2c2B2AB|c3B/2A/2 G2G2|G2c2Bc d2|c4G4:|
|:A3B c2B2|A6A2|A2F2G2A2|B4G4:|
